X: 24405
T: Lovely Nancy
R: jig
M: 6/8
K: Gmajor
|:B/c/|dBG g2 g|efg dBG|cde dBG|FAA A2 c|
dB/c/d g2 g|efg dBG|cde dBG|F^EF G2:|
|:A|BGG dGG|eGG dGG|BGG dGD|FAA AA/B/c|
[1 BGG d2 G|eGG d2 c|BAG A^GA|BGF G2:|
[2 dBd gbg|e/f/ge dBg|cde dBG|F^EF G2||

